lib/flags/sr-suriname.svg

<svg xmlns="http://www.w3.org/2000/svg" fill="none" aria-hidden="true" viewBox="0 0 42 30"><g id="Country=SR - Suriname, Size=sm (36x24)" filter="url(#filter0_dd_91_24995)"><g clip-path="url(#clip0_91_24995)"><g id="flag"><mask id="mask0_91_24995" width="36" height="24" x="3" y="2" maskUnits="userSpaceOnUse" style="mask-type:alpha"><rect id="mask" width="36" height="24" x="3" y="2" fill="white"/></mask><g mask="url(#mask0_91_24995)"><g id="contents"><path id="bottom" fill="#4E8B1D" fill-rule="evenodd" d="M3 18H39V26H3V18Z" clip-rule="evenodd"/><path id="top" fill="#4E8B1D" fill-rule="evenodd" d="M3 2H39V8H3V2Z" clip-rule="evenodd"/><path id="middle" fill="#AF0100" stroke="white" stroke-width="3" d="M3 8.5H1.5V10V18V19.5H3H39H40.5V18V10V8.5H39H3Z"/><path id="Star 5" fill="#FECA00" fill-rule="evenodd" d="M21.0027 16.4942L18.1967 18L18.8367 15.0617L16.5 12.8626L19.664 12.7437L21.0027 10L22.3413 12.7437H25.5L23.1687 15.0617L23.8705 18L21.0027 16.4942Z" clip-rule="evenodd"/></g></g></g></g></g><defs><filter id="filter0_dd_91_24995" width="42" height="30" x="0" y="0" color-interpolation-filters="sRGB" filterUnits="userSpaceOnUse"><feFlood flood-opacity="0" result="BackgroundImageFix"/><feColorMatrix in="SourceAlpha" result="hardAlpha" values="0 0 0 0 0 0 0 0 0 0 0 0 0 0 0 0 0 0 127 0"/><feOffset dy="1"/><feGaussianBlur stdDeviation="1"/><feColorMatrix values="0 0 0 0 0.0627451 0 0 0 0 0.0941176 0 0 0 0 0.156863 0 0 0 0.06 0"/><feBlend in2="BackgroundImageFix" result="effect1_dropShadow_91_24995"/><feColorMatrix in="SourceAlpha" result="hardAlpha" values="0 0 0 0 0 0 0 0 0 0 0 0 0 0 0 0 0 0 127 0"/><feOffset dy="1"/><feGaussianBlur stdDeviation="1.5"/><feColorMatrix values="0 0 0 0 0.0627451 0 0 0 0 0.0941176 0 0 0 0 0.156863 0 0 0 0.1 0"/><feBlend in2="effect1_dropShadow_91_24995" result="effect2_dropShadow_91_24995"/><feBlend in="SourceGraphic" in2="effect2_dropShadow_91_24995" result="shape"/></filter><clipPath id="clip0_91_24995"><rect width="36" height="24" x="3" y="2" fill="white" rx="2"/></clipPath></defs></svg>

<svg xmlns="http://www.w3.org/2000/svg" fill="none" aria-hidden="true" viewBox="0 0 42 30"><g filter="url(#a)"><g clip-path="url(#b)"><mask id="c" width="36" height="24" x="3" y="2" maskUnits="userSpaceOnUse" style="mask-type:alpha"><path fill="#fff" d="M3 2h36v24H3z"/></mask><g mask="url(#c)"><path fill="#4E8B1D" fill-rule="evenodd" d="M3 18h36v8H3v-8ZM3 2h36v6H3V2Z" clip-rule="evenodd"/><path fill="#AF0100" stroke="#fff" stroke-width="3" d="M3 8.5H1.5v11h39v-11H3Z"/><path fill="#FECA00" fill-rule="evenodd" d="M21.003 16.494 18.197 18l.64-2.938-2.337-2.2 3.164-.118L21.003 10l1.338 2.744H25.5l-2.331 2.318L23.87 18l-2.867-1.506Z" clip-rule="evenodd"/></g></g></g><defs><clipPath id="b"><rect width="36" height="24" x="3" y="2" fill="#fff" rx="2"/></clipPath><filter id="a" width="42" height="30" x="0" y="0" color-interpolation-filters="sRGB" filterUnits="userSpaceOnUse"><feFlood flood-opacity="0" result="BackgroundImageFix"/><feColorMatrix in="SourceAlpha" result="hardAlpha" values="0 0 0 0 0 0 0 0 0 0 0 0 0 0 0 0 0 0 127 0"/><feOffset dy="1"/><feGaussianBlur stdDeviation="1"/><feColorMatrix values="0 0 0 0 0.0627451 0 0 0 0 0.0941176 0 0 0 0 0.156863 0 0 0 0.06 0"/><feBlend in2="BackgroundImageFix" result="effect1_dropShadow_91_24995"/><feColorMatrix in="SourceAlpha" result="hardAlpha" values="0 0 0 0 0 0 0 0 0 0 0 0 0 0 0 0 0 0 127 0"/><feOffset dy="1"/><feGaussianBlur stdDeviation="1.5"/><feColorMatrix values="0 0 0 0 0.0627451 0 0 0 0 0.0941176 0 0 0 0 0.156863 0 0 0 0.1 0"/><feBlend in2="effect1_dropShadow_91_24995" result="effect2_dropShadow_91_24995"/><feBlend in="SourceGraphic" in2="effect2_dropShadow_91_24995" result="shape"/></filter></defs></svg>
